X: 34
T:Do
R:Reel
C:Trad.
S:As Played By Andy McGann
M:4/4
L:1/8
Q:1/2=112
K:Gm
G2|:DGGA BABG|D~F3 CFAF|DGGA BABd|(3cBA fc AGG2|
DGGA BABG|D~F2d FcF|DGGA BABd|(3cBA fc AGGA:|
|:B2 (3dcB FBdB|FBdB cAFA|B2 (3dcB fBdB|cAFA BGG2|
BABd c2cA|(3Bcd Bd cAFA|GB (3ABc Bbag|fdcA BGG2:|
|:gd (3ddd gbag|fc (3ccc fgaf|gd (3ddd gbag|fdcA BGBd|
gd (3ddd gbag|(3fgf =eg fdcA|GB (3ABc Bbag|fdcA BGG2:|
